X:184
T:Garricks Rout THO4.184
M:2/4
L:1/8
Z:vmp. Peter Dunk 2010/11.from a transcription by Fynn Titford-Mock 2007
B:Thompson's Compleat Collection of 200 Favourite Country Dances Volume IV.
Q:1/4=160
K:C
c2 eg|fedc|BGAB|Tc3 d|ecac|dBgB|A2T^f2|g4:|
|:gfeg|af Tf2|fedf|ge Te2|edcd|cagf|e2Td2|c4:|
